svgs/sharp-regular/volcano.svg

<svg xmlns="http://www.w3.org/2000/svg" viewBox="0 0 512 512"><!--! Font Awesome Pro 6.6.0 by @fontawesome - https://fontawesome.com License - https://fontawesome.com/license (Commercial License) Copyright 2024 Fonticons, Inc. --><path d="M160 144c-35.3 0-64-28.7-64-64s28.7-64 64-64c15.7 0 30 5.6 41.2 15C212.4 12.4 232.7 0 256 0s43.6 12.4 54.8 31C322 21.6 336.3 16 352 16c35.3 0 64 28.7 64 64s-28.7 64-64 64l-48 0-32 48-32 0-32-48-48 0zM48 458.2l0 5.8 416 0 0-5.8L361.3 342.7 336 368l-32 0-64-64-32 0-22.9 0L48 458.2zM192 224l128 0L512 440l0 24 0 48-48 0L48 512 0 512l0-48 0-24L192 224z"/></svg>

<svg xmlns="http://www.w3.org/2000/svg" viewBox="0 0 512 512"><!--! Font Awesome Pro 6.4.0 by @fontawesome - https://fontawesome.com License - https://fontawesome.com/license (Commercial License) Copyright 2023 Fonticons, Inc. --><path d="M160 144c-35.3 0-64-28.7-64-64s28.7-64 64-64c15.7 0 30 5.6 41.2 15C212.4 12.4 232.7 0 256 0s43.6 12.4 54.8 31C322 21.6 336.3 16 352 16c35.3 0 64 28.7 64 64s-28.7 64-64 64H304l-32 48H240l-32-48H160zM48 458.2V464H464v-5.8L361.3 342.7 336 368H304l-64-64H208 185.1L48 458.2zM192 224H320L512 440v24 48H464 48 0V464 440L192 224z"/></svg>
